src/shared/assets/random-match/icon-shuffle.svg

<svg width="36" height="36" viewBox="0 0 36 36" fill="none" xmlns="http://www.w3.org/2000/svg">
<path d="M30.0975 26.4725L27.685 28.8838C27.5703 29.0059 27.4323 29.1037 27.2791 29.1714C27.1259 29.2391 26.9607 29.2753 26.7932 29.2779C26.6257 29.2805 26.4594 29.2494 26.3042 29.1865C26.149 29.1236 26.008 29.0301 25.8896 28.9116C25.7712 28.7932 25.6778 28.6521 25.615 28.4968C25.5522 28.3416 25.5212 28.1753 25.524 28.0078C25.5267 27.8403 25.563 27.6751 25.6308 27.5219C25.6987 27.3688 25.7966 27.2308 25.9188 27.1163L26.2838 26.75H23.8337C22.5721 26.75 21.4163 26.4 20.3663 25.7C19.3162 25 18.5488 24.0679 18.0638 22.9038L14.3775 14.0575C14.0867 13.3592 13.6262 12.8 12.9962 12.38C12.3662 11.96 11.6729 11.75 10.9162 11.75H6.75C6.41848 11.75 6.10054 11.6183 5.86612 11.3839C5.6317 11.1495 5.5 10.8315 5.5 10.5C5.5 10.1685 5.6317 9.85055 5.86612 9.61613C6.10054 9.38171 6.41848 9.25001 6.75 9.25001H10.9162C12.1779 9.25001 13.3337 9.60001 14.3837 10.3C15.4338 11 16.2008 11.9321 16.685 13.0963L20.3725 21.9425C20.6633 22.6408 21.1233 23.2 21.7525 23.62C22.3825 24.04 23.0758 24.25 23.8325 24.25H26.2838L25.9188 23.8838C25.7994 23.7685 25.7041 23.6305 25.6386 23.478C25.5731 23.3255 25.5386 23.1615 25.5372 22.9955C25.5357 22.8295 25.5674 22.6649 25.6302 22.5113C25.6931 22.3577 25.7859 22.2181 25.9033 22.1008C26.0206 21.9834 26.1602 21.8906 26.3138 21.8277C26.4674 21.7649 26.632 21.7333 26.798 21.7347C26.964 21.7361 27.128 21.7706 27.2805 21.8361C27.433 21.9016 27.5709 21.9969 27.6863 22.1163L30.0987 24.5288C30.3662 24.7954 30.5 25.1192 30.5 25.5C30.5 25.8808 30.3658 26.205 30.0975 26.4725ZM6.75 26.75H9.39625C10.7413 26.75 11.9592 26.3567 13.05 25.57C14.1417 24.7833 14.9 23.7521 15.325 22.4763L15.435 22.145C15.4911 21.9883 15.5153 21.8219 15.5063 21.6557C15.4972 21.4894 15.455 21.3267 15.3822 21.177C15.3094 21.0272 15.2074 20.8936 15.0822 20.7838C14.957 20.6741 14.8112 20.5904 14.6532 20.5378C14.4953 20.4852 14.3284 20.4646 14.1624 20.4774C13.9964 20.4901 13.8346 20.5359 13.6866 20.612C13.5385 20.6882 13.4072 20.7931 13.3002 20.9207C13.1932 21.0483 13.1129 21.1959 13.0637 21.355L12.9537 21.6863C12.6987 22.4513 12.2437 23.07 11.5887 23.5425C10.9337 24.0142 10.2029 24.25 9.39625 24.25H6.75C6.41848 24.25 6.10054 24.3817 5.86612 24.6161C5.6317 24.8506 5.5 25.1685 5.5 25.5C5.5 25.8315 5.6317 26.1495 5.86612 26.3839C6.10054 26.6183 6.41848 26.75 6.75 26.75ZM26.2838 9.25001H25.3538C24.0088 9.25001 22.7904 9.64335 21.6988 10.43C20.6071 11.2167 19.8488 12.2479 19.4237 13.5238L19.3137 13.855C19.2576 14.0118 19.2334 14.1781 19.2425 14.3444C19.2515 14.5106 19.2937 14.6734 19.3665 14.8231C19.4394 14.9728 19.5414 15.1064 19.6665 15.2162C19.7917 15.326 19.9376 15.4096 20.0955 15.4622C20.2535 15.5149 20.4203 15.5354 20.5863 15.5226C20.7523 15.5099 20.9141 15.4641 21.0622 15.388C21.2102 15.3119 21.3416 15.2069 21.4486 15.0793C21.5555 14.9518 21.6359 14.8041 21.685 14.645L21.7963 14.3138C22.0513 13.5488 22.5063 12.93 23.1613 12.4575C23.8154 11.9858 24.5463 11.75 25.3538 11.75H26.2838L25.9188 12.1163C25.7994 12.2316 25.7041 12.3695 25.6386 12.522C25.5731 12.6745 25.5386 12.8385 25.5372 13.0045C25.5357 13.1705 25.5674 13.3351 25.6302 13.4887C25.6931 13.6423 25.7859 13.7819 25.9033 13.8993C26.0206 14.0166 26.1602 14.1094 26.3138 14.1723C26.4674 14.2351 26.632 14.2668 26.798 14.2653C26.964 14.2639 27.128 14.2294 27.2805 14.1639C27.433 14.0984 27.5709 14.0032 27.6863 13.8838L30.0987 11.4713C30.3662 11.2046 30.5 10.8808 30.5 10.5C30.5 10.1192 30.3658 9.79501 30.0975 9.52751L27.6863 7.11626C27.5709 6.99688 27.433 6.90165 27.2805 6.83614C27.128 6.77063 26.964 6.73614 26.798 6.7347C26.632 6.73326 26.4674 6.76488 26.3138 6.82774C26.1602 6.89059 26.0206 6.9834 25.9033 7.10077C25.7859 7.21814 25.6931 7.3577 25.6302 7.51132C25.5674 7.66494 25.5357 7.82954 25.5372 7.99551C25.5386 8.16149 25.5731 8.32551 25.6386 8.47802C25.7041 8.63052 25.7994 8.76845 25.9188 8.88376L26.2838 9.25001Z" fill="black"/>
</svg>

<svg xmlns="http://www.w3.org/2000/svg" fill="none" viewBox="0 0 36 36"><path fill="#000" d="m30.098 26.473-2.413 2.41a1.25 1.25 0 1 1-1.766-1.767l.365-.366h-2.45a6.1 6.1 0 0 1-3.468-1.05 6.1 6.1 0 0 1-2.302-2.796l-3.687-8.846a3.67 3.67 0 0 0-1.38-1.678 3.67 3.67 0 0 0-2.08-.63H6.75a1.25 1.25 0 0 1 0-2.5h4.166a6.1 6.1 0 0 1 3.468 1.05 6.1 6.1 0 0 1 2.301 2.796l3.688 8.846q.435 1.048 1.38 1.678t2.08.63h2.45l-.364-.366a1.25 1.25 0 1 1 1.767-1.768L30.1 24.53q.4.4.401.971 0 .57-.402.973M6.75 26.75h2.646a6.1 6.1 0 0 0 3.654-1.18 6.1 6.1 0 0 0 2.275-3.094l.11-.331a1.251 1.251 0 1 0-2.371-.79l-.11.331a3.66 3.66 0 0 1-1.365 1.857 3.66 3.66 0 0 1-2.193.707H6.75a1.25 1.25 0 0 0 0 2.5m19.534-17.5h-.93a6.1 6.1 0 0 0-3.655 1.18 6.1 6.1 0 0 0-2.275 3.094l-.11.331a1.25 1.25 0 1 0 2.371.79l.111-.331a3.66 3.66 0 0 1 1.365-1.857 3.66 3.66 0 0 1 2.193-.707h.93l-.365.366a1.25 1.25 0 1 0 1.767 1.768L30.1 11.47a1.32 1.32 0 0 0 .401-.971q0-.57-.402-.972l-2.412-2.412a1.251 1.251 0 0 0-2.047 1.362q.099.23.28.406z"/></svg>
